symbols/web/panorama_wide_angle/materialsymbolsoutlined/panorama_wide_angle_wght300grad200fill1_20px.svg

<svg xmlns="http://www.w3.org/2000/svg" height="20" width="20"><path d="M10 16.875q-2.021 0-3.948-.167-1.927-.166-3.76-.666-.459-1.459-.667-2.99-.208-1.531-.208-3.052 0-1.521.208-3.052.208-1.531.667-2.99 1.396-.458 3.083-.646Q7.062 3.125 10 3.125q2.5 0 4.323.198 1.823.198 3.385.635.459 1.459.667 2.99.208 1.531.208 3.052 0 1.521-.208 3.052-.208 1.531-.667 2.99-1.833.604-3.76.718-1.927.115-3.948.115Z"/></svg>

<svg xmlns="http://www.w3.org/2000/svg" height="20" width="20"><path d="M10 16.875Q7.979 16.875 6.052 16.708Q4.125 16.542 2.292 16.042Q1.833 14.583 1.625 13.052Q1.417 11.521 1.417 10Q1.417 8.479 1.625 6.948Q1.833 5.417 2.292 3.958Q3.688 3.5 5.375 3.312Q7.062 3.125 10 3.125Q12.5 3.125 14.323 3.323Q16.146 3.521 17.708 3.958Q18.167 5.417 18.375 6.948Q18.583 8.479 18.583 10Q18.583 11.521 18.375 13.052Q18.167 14.583 17.708 16.042Q15.875 16.646 13.948 16.76Q12.021 16.875 10 16.875Z"/></svg>
